X: 1
T:Pr\"aludium
T:(Prelude) BWV 999
C:Johann Sebastian Bach
O:Germany
N:Bach probably wrote this prelude while he lived in Cothen
N:(1717-1723). It only survives in a lute manuscript, but it is
N:possible, perhaps even probable that it was originally written
N:for a keyboard instrument. Today it's popular both among
N:pianists and guitarists. On guitar it's usually played in D minor.
Z:Transcribed by Frank Nordberg - http://www.musicaviva.com

V:1 Program 1 6 %Harpsichord
V:2 Program 1 6 bass %Harpsichord
M:3/4
L:1/16
Q:1/4=100
K:Cm
V:1
zCEG ECEC zC zC|zCEG ECEC zC zC|zCFA FCFC zC zC|
V:2
C,4z4G,2E,2|C,4z4G,2E,2|C,4z4A,2F,2|

V:1
zCFA FCFC zC zC|z=B,DF DB,DB, zB, zB,|z=B,DF DB,DB, zB, zB,|
V:2
C,4z4A,2F,2|C,4z4A,2F,2|C,4z4A,2F,2|

V:1
zG,CE CG,CG, zG, zG,|zG,CE CG,CG, zG, zG,|zG,CE CG,CG, zG, zG,|
V:2
C,4z4E,2C,2|_B,,4z4E,2C,2|_A,,4z4E,2C,2|

V:1
zG,CE CG,CG, zG, zG,|z=A,CE CA,CA, zA, zA,|z=A,CE CA,CA, zA, zA,|
V:2
G,,4z4E,2C,2|^F,,4z4E,2C,2|^F,,4z4^F,2D,2|

V:1
z=A,B,D B,A,B,A, zA, zA,|zG,B,D B,G,B,G, zG,z G,|\
zB,DG DB,DB, zB, zB,|
V:2
G,,4z4D,2B,,2|G,,4z4B,,2G,,2|E,,4z4G,2E,2|

V:1
z=A,EG EA,EA, zA, zA,|z=A,C^F CA,CA, zA, zA,|\
z=A,C^F CA,CA, zA, zA,|
V:2
C,4z4C,2=A,,2|D,,4z4D,2=A,,2|D,,4z4D,2=A,,2|

V:1
zB,DG DB,DB, zB, zB,|zC^F=A FCFC zC zC|zDGB GDGD zD zD|
V:2
D,,4z4D,2B,,2|D,,4z4E,2C,2|D,,4z4G,2D,2|

V:1
zD^Fc FDFD zD zD|z^CGB GCGC zC zC|z=CE=A ECEC zC zC|
V:2
D,,4z4=A,2^F,2|E,,4z4G,2E,2|D,,4z4^F,2D,2|

V:1
zB,=EG EB,EB, zB, zB,|z=A,CG CA,CA, zA, zA,|\
z=A,C^F CA,CA, zA, zA,|
V:2
D,,4z4=E,2^C,2|D,,4z4_E,2=C,2|D,,4z4D,2=A,,2|

V:1
zG,B,=E B,G,B,G, zG, zG,|z^F,=A,_E A,F,A,F, zF, zF,|\
zG,B,D B,G,B,G, zG, zG,|
V:2
D,,4z4^C,2_B,,2|D,,4z4=C,2=A,,2|D,,4z4B,,2G,,2|

V:1
zG,=A,C A,G,A,G, zG, zG,|z^F,=A,C, A,F,A,F, zF, zF,|\
z^F,=A,C, A,F,A,F, zF, zF,|
V:2
D,,4z4E,2C,2|D,,4z4D,2=A,,2|G,,4z4E,2C,2|

V:1
zG,=A,C =B,G,B,G, zG, zG,|z=A,C^F CA,CA, zA, zA,|\
zC^F=A FCFC zC zC|
V:2
G,,4z4D,2=B,,2|G,,4z4E,2C,2|G,,4z4E,2C,2|

V:1
z=B,DG DB,DB, zB, zB,|z=B,D=F DB,DB, zB, zB,|zG,CE CG,CG, zG, zG,|
V:2
G,,4z4G,2D,2|G,,4z4_A,2F,2|G,,4z4E,2C,2|

V:1
z^F,CE CF,CF, zF, zF,|z^F,CE CF,CF, zF, zF,|zG,=B,D B,G,B,D EC=A,^F|\
H[=B,4D4G4] x8|]
V:2
G,,4z4E,2C,2|G,,4z4E,2C,2|G,,4z4z4|HG,,4 x8|]

